themes/asg/static/images/icons/eye-icon.svg

<svg width="94" height="59" viewBox="0 0 94 59" fill="none" xmlns="http://www.w3.org/2000/svg">
<path d="M73.1005 9.37345L93.1256 29.3986L83.3261 39.1981L53.9275 9.79952L73.1005 9.37345Z" fill="#75FA4C"/>
<path d="M73.1005 49.4234L93.1256 29.3983L83.3261 19.5988L53.9275 48.9974L73.1005 49.4234Z" fill="#75FA4C"/>
<path d="M20.0251 49.4234L1.23994e-06 29.3983L9.79952 19.5988L39.1981 48.9974L20.0251 49.4234Z" fill="#75FA4C"/>
<path d="M20.0251 9.37345L-1.11506e-05 29.3986L9.79951 39.1981L39.1981 9.79953L20.0251 9.37345Z" fill="#75FA4C"/>
<ellipse cx="46.488" cy="29.5" rx="7" ry="7.5" fill="#75FA4C"/>
</svg>

<svg width="94" height="59" fill="none" xmlns="http://www.w3.org/2000/svg"><path d="M73.1 9.373L93.126 29.4l-9.8 9.8L53.928 9.8 73.1 9.374z" fill="#75FA4C"/><path d="M73.1 49.423l20.026-20.025-9.8-9.8-29.398 29.4 19.172.425zm-53.075 0L0 29.398l9.8-9.8 29.398 29.4-19.173.425z" fill="#75FA4C"/><path d="M20.025 9.373L0 29.4l9.8 9.8L39.198 9.8l-19.173-.426z" fill="#75FA4C"/><ellipse cx="46.488" cy="29.5" rx="7" ry="7.5" fill="#75FA4C"/></svg>
